X:1
T:Partition sans titre
C:Compositeur / Arrangeur
L:1/8
M:4/4
I:linebreak $
K:G
V:1 treble nm="Violon" snm="Vln."
V:1
"G" DFGA BGBG |"D" DFAF (3EFG DB, |"G" G,B,DG BGAB |"C" cBAG EADA |"G" DFGA BGBG | %5
"D" DFAF (3EFG DB, |"G" G,B,DG BddB |"C" cAFA"G" G2 DG ::"G" DFGA B2 AB |"Em" eBAB gBeB | %10
"G" DFGA B2 AB |"Em" gBeB AGEG |"G" DFGA B2 AB |"Em" eBAB gBeB |"G" DFGA Bgge | %15
"Em" dBBA"G" G2 BG :| %16
